icons/actions/22/feed-subscribe.svg

<svg xmlns="http://www.w3.org/2000/svg" viewBox="0 0 22 22">
  <defs id="defs3051">
    <style type="text/css" id="current-color-scheme">
      .ColorScheme-Text {
        color:#4d4d4d;
      }
      </style>
  </defs>
 <path 
    style="fill:currentColor;fill-opacity:1;stroke:none" 
    d="m3 3v2a13.999998 13.999998 0 0 1 14 14h2a15.999998 15.999998 0 0 0 -16 -16m0 4v2a10 10 0 0 1 10 10h2a12 12 0 0 0 -12 -12m0 4v2a6 5.999987 0 0 1 6 6h2a8 7.999983 0 0 0 -8 -8m1.5 5a1.5 1.5 0 0 0 -1.5 1.5 1.5 1.5 0 0 0 1.5 1.5 1.5 1.5 0 0 0 1.5 -1.5 1.5 1.5 0 0 0 -1.5 -1.5"
    class="ColorScheme-Text"
    />  
</svg>

<?xml version="1.0"?>
<!-- Created with Inkscape (http://www.inkscape.org/) -->
<svg xmlns:dc="http://purl.org/dc/elements/1.1/" xmlns:cc="http://creativecommons.org/ns#" xmlns:rdf="http://www.w3.org/1999/02/22-rdf-syntax-ns#" xmlns:svg="http://www.w3.org/2000/svg" xmlns="http://www.w3.org/2000/svg" xmlns:sodipodi="http://sodipodi.sourceforge.net/DTD/sodipodi-0.dtd" xmlns:inkscape="http://www.inkscape.org/namespaces/inkscape" width="22" height="22" id="svg2" version="1.1" inkscape:version="0.91+devel r" viewBox="0 0 22 22" sodipodi:docname="feed-subscribe.svg">
  <defs id="defs4">
    <style type="text/css" id="current-color-scheme">
      .ColorScheme-Text {
        color:#4d4d4d;
      }
      .ColorScheme-Background {
        color:#eff0f1;
      }
      .ColorScheme-Highlight {
        color:#3daee9;
      }
      .ColorScheme-ViewText {
        color:#31363b;
      }
      .ColorScheme-ViewBackground {
        color:#fcfcfc;
      }
      .ColorScheme-ViewHover {
        color:#93cee9;
      }
      .ColorScheme-ViewFocus{
        color:#3daee9;
      }
      .ColorScheme-ButtonText {
        color:#31363b;
      }
      .ColorScheme-ButtonBackground {
        color:#eff0f1;
      }
      .ColorScheme-ButtonHover {
        color:#93cee9;
      }
      .ColorScheme-ButtonFocus{
        color:#3daee9;
      }
      </style>
  </defs>
  <sodipodi:namedview id="base" pagecolor="#ffffff" bordercolor="#666666" borderopacity="1.0" inkscape:pageopacity="0.0" inkscape:pageshadow="2" inkscape:zoom="23.979306" inkscape:cx="17.639433" inkscape:cy="8.4430134" inkscape:document-units="px" inkscape:current-layer="layer1" showgrid="true" units="px" borderlayer="true" inkscape:showpageshadow="false" inkscape:window-width="2560" inkscape:window-height="964" inkscape:window-x="-4" inkscape:window-y="34" inkscape:window-maximized="1" showguides="true">
    <sodipodi:guide position="2,20.000017" orientation="18,0" id="guide4066"/>
    <sodipodi:guide position="2,2.0000174" orientation="0,18" id="guide4068"/>
    <sodipodi:guide position="20,2.0000174" orientation="-18,0" id="guide4070"/>
    <sodipodi:guide position="20,20.000017" orientation="0,-18" id="guide4072"/>
    <sodipodi:guide position="3,19.000017" orientation="16,0" id="guide4074"/>
    <sodipodi:guide position="3,3.0000174" orientation="0,16" id="guide4076"/>
    <sodipodi:guide position="19,3.0000174" orientation="-16,0" id="guide4078"/>
    <sodipodi:guide position="19,19.000017" orientation="0,-16" id="guide4080"/>
    <inkscape:grid type="xygrid" id="grid4101"/>
    <sodipodi:guide position="8,19.000017" orientation="0,-5" id="guide4124"/>
    <sodipodi:guide position="11,3.0000174" orientation="0,4" id="guide4241"/>
  </sodipodi:namedview>
  <metadata id="metadata7">
    <rdf:RDF>
      <cc:Work rdf:about="">
        <dc:format>image/svg+xml</dc:format>
        <dc:type rdf:resource="http://purl.org/dc/dcmitype/StillImage"/>
        <dc:title/>
      </cc:Work>
    </rdf:RDF>
  </metadata>
  <g inkscape:label="Capa 1" inkscape:groupmode="layer" id="layer1" transform="translate(0,-1030.3622)">
    <path style="opacity:1;fill:currentColor;fill-opacity:1;stroke:none;stroke-width:10.66666889;stroke-opacity:1" d="M 3 3 L 3 5 A 13.999998 13.999998 0 0 1 17 19 L 19 19 A 15.999998 15.999998 0 0 0 3 3 z M 3 7 L 3 9 A 10 10 0 0 1 13 19 L 15 19 A 12 12 0 0 0 3 7 z M 3 11 L 3 13 A 6 5.9999871 0 0 1 9 19 L 11 19 A 8 7.9999828 0 0 0 3 11 z M 4.5 16 A 1.5 1.5 0 0 0 3 17.5 A 1.5 1.5 0 0 0 4.5 19 A 1.5 1.5 0 0 0 6 17.5 A 1.5 1.5 0 0 0 4.5 16 z " transform="translate(0,1030.3622)" id="circle4170" class="ColorScheme-Text"/>
  </g>
</svg>
